Adwaita++/actions/16/fill-rule-even-odd.svg

<svg viewBox="0 0 16 16" xmlns="http://www.w3.org/2000/svg">
  <path d="m2.9023438 0c-1.95250918.00460459-2.91300257 2.2520502-2.9023438 5.0625.0173382 4.688 2.742472 10.9375 8.0292969 10.9375 5.2001341 0 7.9200221-6.2495 7.9707031-10.9375.03068-2.8120001-.905156-5.0625-2.845703-5.0625-1.451368 0-3.127294.98566423-4.6210939 2.40625a3.3559322 5.4576273 0 0 1 2.7207029 5.3574219 3.3559322 5.4576273 0 0 1 -3.3554685 5.4570311 3.3559322 5.4576273 0 0 1 -3.3554687-5.4570311 3.3559322 5.4576273 0 0 1 2.8808593-5.3984375c-1.4667949-1.39182144-3.0902603-2.36265245-4.515625-2.3652344h-.0039062z" fill="#474747"/>
</svg>

<svg xmlns="http://www.w3.org/2000/svg" version="1.1" viewBox="0 0 16 16">
 <defs>
  <style id="current-color-scheme" type="text/css">
   .ColorScheme-Text { color:#474747; }
  </style>
 </defs>
 <path style="fill:#474747" d="M 2.9023438 0 C 0.94983462 0.0046045942 -0.010658767 2.2520502 0 5.0625 C 0.017338197 9.7505 2.742472 16 8.0292969 16 C 13.229431 16 15.949319 9.7505 16 5.0625 C 16.03068 2.2504999 15.094844 -5.9211895e-16 13.154297 0 C 11.702929 0 10.027003 0.98566423 8.5332031 2.40625 A 3.3559322 5.4576273 0 0 1 11.253906 7.7636719 A 3.3559322 5.4576273 0 0 1 7.8984375 13.220703 A 3.3559322 5.4576273 0 0 1 4.5429688 7.7636719 A 3.3559322 5.4576273 0 0 1 7.4238281 2.3652344 C 5.9570332 0.97341296 4.3335678 0.0025819489 2.9082031 0 L 2.9042969 0 L 2.9023438 0 z"/>
</svg>
